X: 148
T: REEL: Pride of Rathmore
T: Gneeveguilla
C: C: Trad.; S: Máire O'Keeffe; Paddy Cronin; Denis Murphy
C: Set Leaders: Anton, Mars
Z: Anton Zille ed.; jaychoons at The Session
N: https://thesession.org/members/26966/sets/94457
R: Reel
M: 4/4
L: 1/8
Q: 1/2=100
K: Edor
~E3 F G2 EF|GBAG FDDF|~E3 F G3 A|B/c/d ed Bd e2|
~E3 F G2 EF|GBAG FDDF|~E3 F G3 A|B/c/d ed BE ~E2||
e3 d Bdef|geag fd d2|e/f/g ed Bdeg|fedB e3 d|
B/c/d ed Bdef|geag fd d2|~g3 e dged|B2 Ad BEED||

